<?xml version="1.0" encoding="UTF-8"?>
<map version="1.10" tiledversion="1.12.1" orientation="orthogonal" renderorder="right-down" width="40" height="23" tilewidth="16" tileheight="16" infinite="0" nextlayerid="5" nextobjectid="10">
 <editorsettings>
  <export target="../one.lua" format="lua"/>
 </editorsettings>
 <tileset firstgid="1" name="monochrome_tilemap_packed" tilewidth="16" tileheight="16" tilecount="400" columns="20">
  <image source="../../../../../Downloads/1bitplatformerpack/Tilemap/monochrome_tilemap_packed.png" width="320" height="320"/>
 </tileset>
 <layer id="1" name="ground" width="40" height="23">
  <data encoding="csv">
0,0,0,0,0,0,0,0,0,0,0,0,0,0,0,0,0,0,0,0,0,0,0,0,0,0,0,0,0,0,0,0,0,0,0,0,0,0,0,0,
0,0,0,0,0,0,0,0,0,0,0,0,0,0,0,0,0,0,0,0,0,0,0,0,0,0,0,0,0,0,0,0,0,0,0,0,0,0,0,0,
0,0,0,0,0,0,0,0,0,0,0,0,0,0,0,0,0,0,0,0,0,0,0,0,0,0,0,0,0,0,0,0,0,0,0,0,0,0,0,0,
0,0,0,0,0,0,0,0,0,0,0,0,0,0,0,0,0,0,0,0,0,0,0,0,0,0,0,0,0,0,0,0,0,0,0,0,0,0,0,0,
0,0,0,0,0,0,0,0,0,0,0,0,0,0,0,0,0,0,0,0,0,0,0,0,0,0,0,0,0,0,0,0,0,0,0,0,0,0,0,0,
0,0,0,0,0,0,0,0,0,0,0,0,0,0,0,0,0,0,0,0,0,0,0,0,0,0,0,0,0,0,0,0,0,0,0,0,0,0,0,0,
0,0,0,0,0,0,0,0,0,0,0,0,0,0,0,0,0,0,0,0,0,0,0,0,0,0,0,0,0,0,0,0,0,0,0,0,0,0,0,0,
0,0,0,0,0,0,0,0,0,0,0,0,0,0,0,0,0,0,0,0,0,0,0,0,0,0,0,0,0,0,0,0,0,0,0,0,0,0,0,0,
0,0,0,0,0,0,0,0,0,0,0,0,0,0,0,0,0,0,0,0,0,0,0,0,0,0,0,0,0,0,0,0,0,0,0,0,0,0,0,0,
0,0,0,0,0,0,0,0,0,0,0,0,0,0,0,0,0,0,0,0,0,0,0,0,0,0,0,0,0,0,0,0,0,0,0,0,0,0,0,0,
0,0,0,0,0,0,0,0,0,0,0,0,0,0,0,0,0,0,0,0,0,0,0,0,0,0,0,0,0,0,0,0,0,0,0,0,0,0,0,0,
0,0,0,0,0,0,0,0,0,0,0,0,0,0,0,0,0,0,0,0,0,0,0,0,0,0,0,0,0,0,0,0,0,116,117,117,117,117,117,117,
0,0,0,0,0,0,0,0,0,0,0,0,0,0,0,0,0,0,0,0,0,0,0,0,0,0,0,0,0,0,0,0,0,136,137,137,137,137,137,137,
0,0,0,0,0,0,0,0,0,0,116,117,117,117,117,117,117,117,117,117,117,117,117,117,117,117,117,117,117,118,0,0,0,136,137,137,137,137,137,137,
0,0,0,0,0,0,0,0,0,0,136,137,137,137,137,137,137,137,137,137,137,137,137,137,137,137,137,137,137,138,0,0,0,136,137,137,137,137,137,137,
117,117,117,117,117,117,118,0,0,0,136,137,137,137,137,137,137,137,137,137,137,137,137,137,137,137,137,137,137,138,0,0,0,136,137,137,137,137,137,137,
137,137,137,137,137,137,138,0,0,0,136,137,137,137,137,137,137,137,137,137,137,137,137,137,137,137,137,137,137,138,0,0,0,136,137,137,137,137,137,137,
137,137,137,137,137,137,138,0,0,0,136,137,137,137,137,137,137,137,137,137,137,137,137,137,137,137,137,137,137,138,0,0,0,136,137,137,137,137,137,137,
137,137,137,137,137,137,138,0,0,0,136,137,137,137,137,137,137,137,137,137,137,137,137,137,137,137,137,137,137,138,0,0,0,136,137,137,137,137,137,137,
137,137,137,137,137,137,138,0,0,0,136,137,137,137,137,137,137,137,137,137,137,137,137,137,137,137,137,137,137,138,0,0,0,136,137,137,137,137,137,137,
137,137,137,137,137,137,138,0,0,0,136,137,137,137,137,137,137,137,137,137,137,137,137,137,137,137,137,137,137,138,0,0,0,136,137,137,137,137,137,137,
137,137,137,137,137,137,138,0,0,0,136,137,137,137,137,137,137,137,137,137,137,137,137,137,137,137,137,137,137,138,0,0,0,136,137,137,137,137,137,137,
137,137,137,137,137,137,138,0,0,0,136,137,137,137,137,137,137,137,137,137,137,137,137,137,137,137,137,137,137,138,0,0,0,136,137,137,137,137,137,137
</data>
 </layer>
 <objectgroup id="4" name="solid">
  <object id="7" x="-0.0126907" y="239.939" width="111.951" height="128.104">
   <properties>
    <property name="collidable" type="bool" value="true"/>
   </properties>
  </object>
  <object id="8" x="159.99" y="208.021" width="320.045" height="159.795">
   <properties>
    <property name="collidable" type="bool" value="true"/>
   </properties>
  </object>
  <object id="9" x="528" y="176.046" width="111.951" height="191.938">
   <properties>
    <property name="collidable" type="bool" value="true"/>
   </properties>
  </object>
 </objectgroup>
</map>
